svg/k8s-ep.svg

<?xml version="1.0" encoding="UTF-8"?>
<svg xmlns="http://www.w3.org/2000/svg" xmlns:xlink="http://www.w3.org/1999/xlink" width="32.978001" height="32" viewBox="0 0 32.978001 32">
<path fill-rule="nonzero" fill="rgb(19.607843%, 42.352941%, 89.803922%)" fill-opacity="1" d="M 16.378906 0.847656 C 16.105469 0.863281 15.835938 0.933594 15.585938 1.046875 L 4.722656 6.238281 C 4.152344 6.507812 3.742188 7.023438 3.597656 7.632812 L 0.917969 19.292969 C 0.78125 19.90625 0.929688 20.546875 1.320312 21.035156 L 8.835938 30.382812 C 9.230469 30.871094 9.828125 31.15625 10.460938 31.15625 L 22.515625 31.15625 C 23.148438 31.15625 23.746094 30.871094 24.140625 30.382812 L 31.65625 21.03125 C 32.050781 20.542969 32.195312 19.898438 32.054688 19.289062 L 29.371094 7.632812 C 29.230469 7.019531 28.816406 6.507812 28.25 6.238281 L 17.386719 1.046875 C 17.074219 0.898438 16.726562 0.828125 16.378906 0.84375 "/>
<path fill-rule="nonzero" fill="rgb(100%, 100%, 100%)" fill-opacity="1" d="M 16.375 0.00390625 C 16.082031 0.0195312 15.796875 0.09375 15.535156 0.21875 L 4.066406 5.691406 C 3.46875 5.976562 3.035156 6.519531 2.882812 7.167969 L 0.0546875 19.472656 C -0.09375 20.121094 0.0625 20.796875 0.476562 21.316406 L 8.410156 31.183594 C 8.828125 31.699219 9.460938 32 10.125 32 L 22.851562 32 C 23.515625 32 24.148438 31.699219 24.566406 31.183594 L 32.5 21.3125 C 32.914062 20.796875 33.070312 20.117188 32.921875 19.472656 L 30.09375 7.164062 C 29.945312 6.519531 29.507812 5.976562 28.90625 5.691406 L 17.441406 0.214844 C 17.109375 0.0585938 16.742188 -0.015625 16.375 0 M 16.382812 0.847656 C 16.730469 0.828125 17.074219 0.898438 17.386719 1.046875 L 28.25 6.234375 C 28.816406 6.503906 29.230469 7.015625 29.375 7.628906 L 32.058594 19.285156 C 32.199219 19.898438 32.050781 20.542969 31.65625 21.03125 L 24.140625 30.378906 C 23.742188 30.867188 23.144531 31.152344 22.515625 31.152344 L 10.460938 31.15625 C 9.832031 31.152344 9.238281 30.871094 8.839844 30.382812 L 1.324219 21.035156 C 0.929688 20.546875 0.78125 19.902344 0.921875 19.289062 L 3.601562 7.632812 C 3.742188 7.023438 4.15625 6.507812 4.722656 6.238281 L 15.585938 1.046875 C 15.835938 0.925781 16.105469 0.859375 16.382812 0.847656 "/>
<path fill-rule="evenodd" fill="rgb(100%, 100%, 100%)" fill-opacity="1" d="M 6.570312 19.667969 L 11.890625 19.667969 L 11.890625 23.402344 L 6.570312 23.402344 Z M 13.828125 19.667969 L 19.148438 19.667969 L 19.148438 23.402344 L 13.828125 23.402344 Z M 21.085938 19.667969 L 26.40625 19.667969 L 26.40625 23.402344 L 21.085938 23.402344 Z M 12.273438 8.601562 L 20.703125 8.601562 L 20.703125 12.332031 L 12.273438 12.332031 Z M 12.273438 8.601562 "/>
<path fill-rule="nonzero" fill="rgb(100%, 100%, 100%)" fill-opacity="1" d="M 13.316406 13.199219 L 14.15625 14.039062 L 10.394531 17.800781 L 9.550781 16.957031 Z M 18.863281 13.199219 L 18.019531 14.042969 L 21.78125 17.800781 L 22.625 16.957031 Z M 16.929688 13.515625 L 15.738281 13.511719 L 15.703125 17.625 L 16.898438 17.628906 Z M 16.929688 13.515625 "/>
</svg>

<svg role="img" viewBox="0 0 32.978 32" height="32" width="32.978" xmlns="http://www.w3.org/2000/svg"><path d="M16.379.848a2.238 2.238 0 0 0-.793.199L4.723 6.238c-.57.27-.98.785-1.125 1.395l-2.68 11.66a2.068 2.068 0 0 0 .402 1.742l7.516 9.348c.394.488.992.773 1.625.773h12.055c.632 0 1.23-.285 1.625-.773l7.515-9.352a2.04 2.04 0 0 0 .399-1.742L29.37 7.633a2.053 2.053 0 0 0-1.121-1.395L17.387 1.047a2.131 2.131 0 0 0-1.008-.203" fill="rgb(19.607843%, 42.352941%, 89.803922%)"/><path d="M16.375.004c-.293.016-.578.09-.84.215L4.066 5.69a2.175 2.175 0 0 0-1.183 1.477L.055 19.473a2.175 2.175 0 0 0 .422 1.843l7.933 9.868c.418.515 1.05.816 1.715.816h12.727c.664 0 1.296-.3 1.714-.816l7.934-9.872c.414-.515.57-1.195.422-1.84L30.094 7.165a2.171 2.171 0 0 0-1.188-1.473L17.441.215A2.291 2.291 0 0 0 16.375 0m.008.848c.347-.02.691.05 1.004.199L28.25 6.234c.566.27.98.782 1.125 1.395l2.684 11.656a2.05 2.05 0 0 1-.403 1.746l-7.515 9.348a2.1 2.1 0 0 1-1.625.773l-12.055.004a2.105 2.105 0 0 1-1.621-.773l-7.516-9.348a2.05 2.05 0 0 1-.402-1.746l2.68-11.656a2.06 2.06 0 0 1 1.12-1.395l10.864-5.191c.25-.121.52-.188.797-.2" fill="rgb(100%, 100%, 100%)"/><path d="M6.57 19.668h5.32v3.734H6.57Zm7.258 0h5.32v3.734h-5.32Zm7.258 0h5.32v3.734h-5.32ZM12.273 8.602h8.43v3.73h-8.43Zm0 0" fill="rgb(100%, 100%, 100%)" fill-rule="evenodd"/><path d="m13.316 13.2.84.84-3.761 3.76-.844-.843Zm5.547 0-.843.843 3.761 3.758.844-.844Zm-1.933.316-1.192-.004-.035 4.113 1.195.004Zm0 0" fill="rgb(100%, 100%, 100%)"/></svg>
